X:62
T:Irish Trot. 1652.
T:John Malchair's Third Collection of Tunes
%%VWML:Malchair-3619-p62
F:https://www.vwml.org/record/Malchair/3619/p62
F:www.vwml.org/topics/historic-dance-and-tune-books/Malchair
Z:Eric Conrad Feb 2020
M:C|    % unbarred
L:1/8
K:Dphr
defe d2A2 [|] Bcde c3c [|] ddcB A2c2 [|] F2G2 A3G [|]
ABcd cAF2 [|] EFGA GE^C2 [|] DEFG A2e2 [|] =cded d4 |]
W:% Using this W: as a space between tunes
T:Irish Trot.
T:(crossed out in manuscript with a lot of Xs)
T:John Malchair's Third Collection of Tunes
F:https://www.vwml.org/record/Malchair/3619/p62
F:www.vwml.org/topics/historic-dance-and-tune-books/Malchair
% Z:Eric Conrad Feb 2020
M:C|
L:1/8
K:Fmaj
"^in modern notation."fg ag f2c2 | efgf e3e | ffed c2e2 | A2B2 c3B |
cdef ecA2 | GABc BGE2 | FGAB c2g2 | efgf f4 |]
W:% Using this W: as a space between tunes
T:Jog on.
T:John Malchair's Third Collection of Tunes
F:https://www.vwml.org/record/Malchair/3619/p62
F:www.vwml.org/topics/historic-dance-and-tune-books/Malchair
Z:Eric Conrad Feb 2020
M:C     % modern 6/4 but marked C
L:1/4
K:Amix
d2Ad2e | f>gfeca | deda2g | f3e3 |
e2fg>ag | f>gfe>dc | dedcBc | B3A3 |]
W:% Using this W: as a space between tunes
T:Jack Puddin.
T:John Malchair's Third Collection of Tunes
%%VWML:Malchair-3619-p62
F:https://www.vwml.org/record/Malchair/3619/p62
F:www.vwml.org/topics/historic-dance-and-tune-books/Malchair
Z:Eric Conrad Feb 2020
M:C % modern 6/4 with some missing bars, but marked C
% stemless black notes are transcribed as half notes.
L:1/4
K:Gmin
% old notation (stemless black notes and 64 marked as common time) but not marked as such
D | G2GA2F [|] BG2c2A [|] dB2A2G [|] G3-G2 ||
g | fd2e2c [|] dB2c2A [|] BG2AF2 [|] B3-B2B [|]
cA2d2A [|] ^FD2B2c [|] dB2c2A [|] G3-G2 ||
% This is the same tune in modern notation, but neither titled, nor metered, nor marked as new notation.
D | G2GA2F | BG2c2A | dB2A2G | G3-G2 ||
g | fd2e2c | dB2c2A | BG2AF2 | B3-B2B |
cA2d2A | ^FD2B2c | dB2c2A | G3-G2 |]


